X: 1
T: The Train Journey North
C: Tom Anderson
R: hornpipe
Z: 2005 John Chambers <jc:trillian.mit.edu>
M: C
L: 1/8
K: D
A \
| "D"d2 f>A d>f A>d | f>A d>f A2 d>f | "A7"g2 e>c A>c e>A | c>e A>c e>A f>e | "D"d2 f>A d>f A>d | f>A d>f A2 d>f |
| "A7"g2 e>c A>c e>A |1 c2 e>g "D"f>d d :|2 "A7"c2 e>g "D"f>A d |: f | "D"a2 f>d A2 f>A | d>f a>f g>f e>f | "A7"g2 e>c A2 e>A |
| c>e A>g "D"f>A d>f | "D"a2 f>d A2 f>A | d>f a>f g>f e>f | "A7"g2 e>c A>c e>A |1 c2 e>g "D"f>A d :|2 "A7"c2 e>g "D"f>d d |]
